X:1
T:Title
%%score { ( 1 3 ) | ( 2 4 ) }
L:1/8
M:4/4
K:F
V:1 treble nm="Grand Piano"
V:3 treble 
V:2 bass 
V:4 bass 
V:1
 z4 z2[Q:1/4=100] A>G | F3 G F2 A>[GB] | [Ac]3 [Bd] [Ac]2 A>A | d2 c2 B2 A>A | %4
 [DG]2 [DF]2 [CE]2 [EA]>[EG] | F3 G F2 A>B |[M:9/8] c2 ^c- c d2- d[Fd]>[Fd] | %7
[M:4/4] [Fc]2 [CFA]>[B,EG] [A,DF]2 [=B,DE]>[B,DF] |[M:7/8] [CFA]2 [B,EG]2 [A,F]3 |[M:1/4] A>B | %10
[M:4/4] c6 z2 | [EG]2 [FA]2 [EG]2 G>A | B2 B2 [EB]>[EB] [FA]>[EG] | A2 c2 G2 A>G | F6 z2 | %15
 [DB]6 [Fc]>[Fd] | [Fc]2 [CFA]2 [B,EG]3 [CEA] |[M:3/4] [A,F]6 |] %18
V:2
 z4 z2 [F,CF]>[F,B,C] | [F,A,C]3 [F,B,C] [F,A,C]2 [F,CF]>[F,C] | %2
 [F,F]3 [F,F] [F,F]2 [F,CF]>[F,CF] | [B,F]2 [A,CF]2[K:bass] [G,CE]2 [F,CF]>[F,CF] | %4
 [B,,B,]2 [=B,,G,]2 [C,G,]2 [C,C]>[C,B,] | [F,A,C]3 [F,B,C] [F,A,C]2[K:treble] [F,CF]>[G,CE] | %6
[M:9/8] [A,CF]2 [F,A,F]- [F,A,F] [B,F]2- [B,F][K:bass][B,,B,]>[B,,B,] | %7
[M:4/4] [C,A,]2 C,>^C, D,2 G,>G, |[M:7/8] C,2 C,2 F,3 |[M:1/4][K:treble] F>G | %10
[M:4/4] A6[K:bass] z2 | [C,C]2 [C,C]2 [C,C]2[K:treble] [B,CE]>[A,CF] | %12
 [G,CE]2 [G,CE]2 [C,C]>[C,C] [C,C]>[C,C] | [F,CF]2 [A,CE]2 [CE]2 C>B, | A,6 z2 | %15
 [B,,B,]6 [B,,A,]>[B,,G,] | [C,A,]2 C,2 C,3 C, |[M:3/4] F,6 |] %18
V:3
 x8 | x8 | x8 | x8 | x8 | x8 |[M:9/8] x9 |[M:4/4] x8 |[M:7/8] x7 |[M:1/4] x2 | %10
[M:4/4] z2 F>F F>[FAc] [CFA]>[A,F] | x8 | x8 | x8 | z2 C>C C>F G>A | x8 | x8 |[M:3/4] x6 |] %18
V:4
 x8 | x8 | x8 | x4[K:bass] x4 | x8 | x6[K:treble] x2 |[M:9/8] x7[K:bass] x2 |[M:4/4] x8 | %8
[M:7/8] x7 |[M:1/4][K:treble] x2 |[M:4/4] z2[K:bass] F,>F, F,>F, F,>F, | x6[K:treble] x2 | x8 | %13
 x8 | z2 F,>F, F,>[F,A,] [F,B,E]>[F,C_E] | x8 | x8 |[M:3/4] x6 |] %18

